X:87
T:Lilly. VWMLa.087
%%VWML:Anon2-3049-p50-0
F:http://www.vwml.org/record/Anon2/3049/p50
S:Anon. MS, late 18thC, Vaughan Williams Mem. Library
O:England;Yorkshire
Z:vmp/efdss.Simon Wilson. Reviewed PJH 2008.
M:C|
L:1/8
Q:1/2=90
K:D
A|dcdA B2AG|F2ED CEEA|dcdA B2AF|!turn!(EDEF) D/D/D D:|
|:A|DFAG F2A2|DFAF E2E2|
DFAG F2A2|!turn!(EDEF) D/D/D D:|\
|:A|(dc).d.A B2de|{g}f2ed ceeg|\
{g}f2!turn!ed (dB).A.F|!turn!(EDEF) D/D/D D:|
T:Shutters Hornpipe. VWMLa.088
R:Hornpipe
S:Anon. MS, late 18thC, Vaughan Williams Mem. Library
O:England;Yorkshire
Z:vmp/efdss.Simon Wilson. Reviewed PJH 2008.
M:C|
L:1/8
Q:1/2=90
K:A
E2|A2A2- ABcd|edcB AcBA|B2B2- Bdfe|dcBA GBGE|\
A2A2- ABcd|edcB Aagf|(g/a/b).e.g (f/g/a).^d.f|e2e2e2:|
|:E2|B2B2 B2cd|ecBA GBGE|e2e2 e2fg|afed cecA|\
f2D2- Dfaf|e2C2- Cefg|fdec dBAG|A2A2 A2:|
